pico_icons/symbolic/categories/applications-engineering-symbolic.svg

<?xml version="1.0" encoding="UTF-8"?>
<svg height="16px" viewBox="0 0 16 16" width="16px" xmlns="http://www.w3.org/2000/svg">
    <g fill="#2e3436">
        <path d="m 7.996094 8 c -3.996094 0 -5.996094 3 -5.996094 6 h -1.75 c -0.25 0 -0.25 0.15625 -0.25 0.25 v 1.5 c 0 0.25 0.136719 0.25 0.25 0.25 h 15.492188 c 0.195312 0.007812 0.25 -0.128906 0.25 -0.25 v -1.5 c 0.023437 -0.144531 0 -0.25 -0.25 -0.25 h -1.746094 c 0 -3 -2 -6 -6 -6 z m 0 3 c 2.351562 0 3 1.761719 3 3 h -5.996094 c 0 -1.199219 0.699219 -3 2.996094 -3 z m 0 0" fill-rule="evenodd"/>
        <path d="m 14.988281 0.601562 c -0.28125 -0.242187 -0.625 -0.421874 -0.964843 -0.5624995 l -0.023438 2.2304685 c -0.003906 0.460938 -0.453125 0.730469 -1.003906 0.730469 h -1 c -0.554688 -0.007812 -1.003906 -0.308594 -1 -0.769531 l 0.023437 -2.230469 c -0.347656 0.132812 -0.691406 0.304688 -0.976562 0.535156 c -1.378907 1.117188 -1.398438 2.949219 -0.042969 4.097656 c 0.285156 0.242188 0.625 0.421876 0.96875 0.5625 c 0.027344 0.011719 0.027344 2.054688 0.027344 2.054688 c 1.488281 0.75 2.351562 1.75 3 2.75 v -4.75 c 0.34375 -0.132812 0.664062 -0.320312 0.953125 -0.550781 c 1.378906 -1.117188 1.394531 -2.949219 0.039062 -4.097657 z m 0 0"/>
    </g>
</svg>

<svg xmlns="http://www.w3.org/2000/svg" width="16" height="16" version="1.1">
 <path style="fill:#fff1e8" d="M 8,8 C 4,8 2,11 2,14 H 0.25 C 0,14 0,14.25 0,14.25 V 15.75 C 0,16 0.25,16 0.25,16 H 15.75 C 15.75,16 16,16 16,15.75 V 14.25 C 16,14.25 16,14 15.75,14 H 14 C 14,11 12,8 8,8 Z M 8,11 C 10.35,11 11,12.76 11,14 H 5 C 5,12.8 5.7,11 8,11 Z"/>
 <path style="fill:#fff1e8" d="M 11,0 C 10.65,0.13 10.29,0.29906 10,0.53906 8.62,1.6491 8.7008,3.5592 10.051,4.6992 10.331,4.9392 10.66,5.1 11,5.25 V 7.5957 C 11.893,7.9825 12.651,8.5396 13.248,9.2109 13.552,9.5535 13.791,9.9312 14,10.322 V 5.25 C 14.34,5.12 14.659,4.9292 14.949,4.6992 16.329,3.5792 16.34,1.7496 15,0.59961 14.71,0.35961 14.35,0.14 14,0 V 2.25 C 14,2.71 13.55,3 13,3 H 12 C 11.44,3 11,2.71 11,2.25 Z"/>
</svg>
